src/assets/247.svg

<svg width="36" height="36" viewBox="0 0 36 36" fill="none" xmlns="http://www.w3.org/2000/svg">
<path d="M15.6082 2.36322C16.738 1.39715 18.5882 1.39715 19.7344 2.36322L22.3215 4.59009C22.8127 5.01582 23.7297 5.35967 24.3846 5.35967H27.1682C28.9039 5.35967 30.3284 6.78421 30.3284 8.51986V11.3034C30.3284 11.942 30.6723 12.8753 31.098 13.3666L33.3249 15.9537C34.2909 17.0835 34.2909 18.9337 33.3249 20.0799L31.098 22.667C30.6723 23.1582 30.3284 24.0752 30.3284 24.7301V27.5137C30.3284 29.2494 28.9039 30.6739 27.1682 30.6739H24.3846C23.746 30.6739 22.8127 31.0178 22.3215 31.4435L19.7344 33.6704C18.6046 34.6364 16.7543 34.6364 15.6082 33.6704L13.0211 31.4435C12.5298 31.0178 11.6129 30.6739 10.9579 30.6739H8.12522C6.38957 30.6739 4.96503 29.2494 4.96503 27.5137V24.7138C4.96503 24.0752 4.62118 23.1582 4.21183 22.667L2.00133 20.0635C1.05164 18.9337 1.05164 17.0998 2.00133 15.97L4.21183 13.3666C4.62118 12.8753 4.96503 11.9584 4.96503 11.3198V8.50348C4.96503 6.76784 6.38957 5.3433 8.12522 5.3433H10.9579C11.5965 5.3433 12.5298 4.99944 13.0211 4.57372L15.6082 2.36322Z" stroke="white" stroke-width="2.4561" stroke-linecap="round" stroke-linejoin="round"/>
</svg>

<svg xmlns="http://www.w3.org/2000/svg" width="36" height="36" fill="none"><path stroke="#fff" stroke-linecap="round" stroke-linejoin="round" stroke-width="2.456" d="M15.608 2.363c1.13-.966 2.98-.966 4.126 0l2.587 2.227c.492.426 1.409.77 2.064.77h2.783a3.173 3.173 0 0 1 3.16 3.16v2.783c0 .639.344 1.572.77 2.064l2.227 2.587c.966 1.13.966 2.98 0 4.126l-2.227 2.587c-.426.491-.77 1.408-.77 2.063v2.784a3.173 3.173 0 0 1-3.16 3.16h-2.783c-.639 0-1.572.344-2.064.77l-2.587 2.226c-1.13.966-2.98.966-4.126 0l-2.587-2.227c-.491-.425-1.408-.77-2.063-.77H8.125a3.173 3.173 0 0 1-3.16-3.16v-2.8c0-.638-.344-1.555-.753-2.046l-2.21-2.604c-.95-1.13-.95-2.963 0-4.093l2.21-2.603c.41-.492.753-1.409.753-2.047V8.503a3.173 3.173 0 0 1 3.16-3.16h2.833c.639 0 1.572-.344 2.063-.77z"/></svg>
